X:367
T:Red Apple Rag 
C:
N:Transcribed by Tristan Scroggins Based on Aubrey Haynie's version from "Bluegrass '96"
R:bluegrass
L:1/8
Q:1/4=288
M:4/4
K:G
B,A, | G,A, B,C DF GA | Bd BA GE DB, | CB, CD EG cd | eg ^d=d c4 | DE FG A^c d=f | 
fa (3faf ed ef | gd (3Bc^c dB GA | BG EF GD B,A, | G,A, B,C DF GA | [fB][ad] [fB]A GE DB, | 
CB, CD EG cd | eg ^d=d c4 | DE FG A^c d=f | fb (3fbf ed ef | ge dc BG AF | G2 [g6B6] | 
eg2g g2 ga | bg ag ed BA | c2 (3dcB cd ef | ga fg (3efg ag | fg fd ef eB | de dB AG EF | 
GG dG FF dF/=F/ | Ec E^D =DB DB, | G,2 g4 ga | bg ag ed BA | c2 (3dcB cd ef | 
ga fg (3efg ag | fd fa bc' ba | fa f=f ed BA | f=f ed Bc d[f^A] | [eA][=f^A] [e=A][f_B] [eA]G ED | 
G8 | z6 B,A, | "Alternate [A] pa"G,A, B,C DF GA | Bd BA GE DB, | CB, CD EG cd | 
eg ed c4 | DE FG A^c d=f | fa fe de =f^f | gd BG ^dc AF | GD B,G, ^DC B,A, | G,A, B,C DF GA | 
Bd BA GE DB, | CB, CD EG cd | eg ed c4 | DE FG A^c d=f | fa fe de =f^f | gd BG ^dc AF | 
G2 [g6B6D6G,6] | 


